crypto/stx.svg

<svg fill="none" height="32" viewBox="0 0 32 32" width="32" xmlns="http://www.w3.org/2000/svg"><path d="m16 32c8.8366 0 16-7.1634 16-16 0-8.83656-7.1634-16-16-16-8.83656 0-16 7.16344-16 16 0 8.8366 7.16344 16 16 16z" fill="#5546ff"/><path d="m22.5282 24.4305-3.4443-5.4067h4.9462v-2.0426h-16.22029v2.0426h4.94619l-3.44431 5.4067h2.56321l4.0451-6.3479 4.045 6.3479zm1.5019-9.4318v-2.0425h-4.8461l3.4043-5.3467h-2.5832l-4.0851 6.4481-4.0852-6.4481h-2.58318l3.40428 5.3467h-4.84609v2.0626z" fill="#fff"/></svg>

<svg width="32" height="32" fill="none" xmlns="http://www.w3.org/2000/svg"><path d="M16 32c8.837 0 16-7.163 16-16S24.837 0 16 0 0 7.163 0 16s7.163 16 16 16Z" fill="#5546FF"/><path d="m22.528 24.43-3.444-5.406h4.946V16.98H7.81v2.043h4.946L9.312 24.43h2.563l4.045-6.347 4.045 6.348h2.563ZM24.03 15v-2.043h-4.846l3.404-5.346h-2.583l-4.085 6.448-4.085-6.449H9.252l3.404 5.347H7.81v2.063l16.22-.02Z" fill="#fff"/></svg>
